src/assets/icons/Arrow.svg

<svg width="48" height="105" viewBox="0 0 48 105" fill="none" xmlns="http://www.w3.org/2000/svg">
<path d="M39.7241 52.4756L1.00395 98.104C-0.334646 99.6817 -0.334646 102.239 1.00395 103.817C2.34294 105.394 4.51326 105.394 5.85205 103.817L46.9962 55.3322C48.3346 53.7545 48.3346 51.1967 46.9962 49.6191L5.85205 1.13414C4.48995 -0.416053 2.31943 -0.371542 1.00395 1.23357C-0.279197 2.79939 -0.279197 5.28164 1.00395 6.84722L39.7241 52.4756Z" fill="#EEEEEE"/>
</svg>

<?xml version="1.0" encoding="UTF-8"?>
<svg fill="none" viewBox="0 0 48 105" xmlns="http://www.w3.org/2000/svg">
<path d="m39.724 52.476l-38.72 45.628c-1.3386 1.5777-1.3386 4.135 0 5.713 1.339 1.577 3.5093 1.577 4.8481 0l41.144-48.485c1.3384-1.5777 1.3384-4.1355 0-5.7131l-41.144-48.485c-1.3621-1.5502-3.5326-1.5057-4.8481 0.09943-1.2831 1.5658-1.2831 4.0481 0 5.6136l38.72 45.628z" fill="#eee"/>
</svg>
